X: 113
T: No_1_Buffalo_Dance_Song_(a).krn
N: Derived from No_1_Buffalo_Dance_Song_(a).krn
%%abc-version 2.0
%%abcx-abcm2ps-target-version 5.9.1 (29 Sep 2008)
%%abc-creator hum2abc beta
%%abcx-conversion-date 2019/03/15 08:38:45
%%humdrum-veritas 2200150884
%%humdrum-veritas-data 1225285511
%%linebreak <none>
%%barnumbers 0
L: 1/8
M: 3/4
K: Db clef=bass
[K:clef=bass][M:3/4]B,3B, B,B, ||  
[M:2/4](B,3F,) | 
(B,3/F,/) B, z | 
(B,3/F,/) B, z/ B,/ | 
B,2B,F, | 
(3B,F,-F,F,2 | 
B,/B,/A, B,/A,/F, | 
A,/F,3/ F,E, | 
F,/E,/E,/E,/ E, z | 
(3E,/-E,E,E,2 | 
(3F,E,E, E, z ||  
[M:3/4]E,/E,3/ E,B,-B,2 ||  
[M:2/4]B,B, B,B, | 
B,4 |]  



% FRACTION = 0.499634BUT SHOULD BE 0
